X: 1748
T: Sevdi Bu Gönül Seni 
C: Âma Kadri Efendi
O: Turkey
F: http://compmusic.upf.edu/node/140
N: neva--agirsemai--aksaksemai--sevdi_bu_gonul--ama_kadri_efendi
N: makam= neva
N: form= agirsemai
N: usul= aksaksemai = 10/8
M: 10/8
L: 1/16
K: C _2/4B ^3/4f  
Q: 1/4=120
%%MIDI tuningsystem comma53
g2e2 e2e2 =f2ed ede2 dcd4g/f/g e3d d2ed cdc2 d2c_1/4B  | 
w:   | 
A_1/4BA2 B2cd cBc2 d3e e2d2  | c_1/4Bcd c2d2 d4 e^fd4de  | 
w:   |   | 
^fga4g2 f4 e2fg fef2  | g2g4^fe e4 d2d4e2  | \
w:   |   | 
=f2ed d4 z2g2 e2e2 e2f2  | 
w:   | 
eded e2dc d4 g/=f/ge3dd2  | edcd c2d2 c_1/4BAB A2B2 cdcB  | 
w:   |   | 
c2d3ee2 d2c_1/4B cdc2 d2d4e^f d4 defg a4 g2f4e2 fgfe f2g2 g2fe e4  | 
w:   | 
d2d4e2 =f2ed d4 z2d4d2 g2^f2 e2d2 e=fe2 d2d4d2 _7/8e2de ^f2ed d4 c_1/4Bc4B2 g2=f2 =e2d2 d2c2 B2c4d2 d4 z4 d2c2 B2c4d2 d4 z4 ded2 e2^f2  | 
w:   | 
e2^f2 g4 g2a2 a2g2 =f2g2  | =fede f2g2 feed e2dc d4  | 
w:   |   | 
z2g2 e2e2 e2=f2 eded e2dc  | d4 g/=f/ge3dd2 edcd c2d2  | 
w:   |   | 
c_1/4BAB A2B2 cdcB c2d3ee2  | d2c_1/4B cdc2 d2d4e^f d4  | 
w:   |   | 
de^fg a4 g2f4e2 fgfe  | ^f2g2 g4 fee4d2 d4  | \
w:   |   | 
e2=f2 edd4z2 d4 d2g2  | 
w:   | 
=f2e2 d2d4d2 d4 d2_7/8e2  | dc^f2 _7/8edd4z2 z4 G2G4A4A_1/4B A2B2 cdcB c2=e2  | 
w:   |   | 
d2c_1/4B c2d2 d4 e2^f2 e2f2  | g2^f2 e2d2 e2d2 c2d4e2  | \
w:   |   | 
d2c_1/4B c2d2 d4 z2z4G2  | 
w:   | 
G4 A4 A_1/4BA2 B2cd cBc2  | d2c_1/4B c2d2 d4 z2z4G2  | \
w:   |   | 
G4 z2A_1/4B c4 B2c4B4c2 d2cB d2e2 cBB^A B2B2  | 
w:   | 
z4 _1/4B2d4d4e2 d2^c2  | ^c2d2 c2_B2 c2B2 A2A4G2  | \
w:   |   | 
c4 d2d4z4d2 c2_1/4B2  | 
w:   | 
c4 d2d4z2 G2d4d2  | d4 d2e4e4d2 c2d2  | \
w:   |   | 
c4 _1/4B2A4z2 ABc4c2  | 
w:   | 
c4 _1/4B2c2 d2cB d2cB B^AB2  | _1/4B2z4B2 d4 d4 e2d2  | \
w:   |   | 
^c2c2 d2c2 _B2c2 B2A2 A4  | 
w:   | 
G2c4d2 d4 z4 d2c2  | _1/4B2c4d2 d2e2 c2B2 c2d2  | \
w:   |   | 
_1/4B2A2 A4 A2A4z4z4z2 |
w:   | 


